icons/svg-base/cb-talent-merchant.svg

<?xml version="1.0" encoding="UTF-8" standalone="no"?>
<svg
   width="134px"
   height="100px"
   viewBox="0 0 101 100"
   version="1.1"
   id="svg6904"
   sodipodi:docname="cb-talent-merchant.svg"
   inkscape:version="1.1.2 (b8e25be833, 2022-02-05)"
   xmlns:inkscape="http://www.inkscape.org/namespaces/inkscape"
   xmlns:sodipodi="http://sodipodi.sourceforge.net/DTD/sodipodi-0.dtd"
   xmlns="http://www.w3.org/2000/svg"
   xmlns:svg="http://www.w3.org/2000/svg">
  <defs
     id="defs6908" />
  <sodipodi:namedview
     id="namedview6906"
     pagecolor="#ffffff"
     bordercolor="#666666"
     borderopacity="1.0"
     inkscape:pageshadow="2"
     inkscape:pageopacity="0.0"
     inkscape:pagecheckerboard="0"
     showgrid="false"
     inkscape:zoom="8.0298507"
     inkscape:cx="66.937732"
     inkscape:cy="49.938662"
     inkscape:window-width="1920"
     inkscape:window-height="1017"
     inkscape:window-x="-8"
     inkscape:window-y="-8"
     inkscape:window-maximized="1"
     inkscape:current-layer="svg6904" />
  <ellipse
     style="opacity:1;fill:#ffff00;stroke-width:0.998148"
     id="path7212"
     cx="52.866177"
     cy="50.312271"
     rx="50.063194"
     ry="50.187733" />
  <g
     id="surface1"
     transform="translate(2.4907059,0.1877324)">
    <path
       style="fill:#333a51;fill-opacity:1;fill-rule:nonzero;stroke:none"
       d="M 55.214844,0 C 80.800781,2.703125 101,24.324219 101,50 101,77.027344 80.800781,98.648438 55.214844,100 V 86.488281 c 0,0 1.34375,0 1.34375,0 4.042968,-1.351562 6.734375,-2.703125 9.429687,-4.054687 2.691407,-2.703125 5.386719,-4.054688 6.730469,-6.757813 1.347656,-2.703125 2.695312,-6.757812 2.695312,-9.460937 0,-4.050782 -1.347656,-5.402344 -1.347656,-8.105469 C 72.71875,55.40625 71.375,54.054688 68.679688,52.703125 67.332031,50 64.640625,48.648438 61.945312,47.296875 c -1.34375,-1.351563 -5.386718,-2.703125 -8.078124,-4.054687 -2.695313,0 -5.386719,-1.351563 -6.734376,-2.703126 -1.347656,0 -4.039062,-1.351562 -5.386718,-2.703124 -1.347656,0 -1.347656,-1.347657 -2.691406,-2.699219 0,-1.351563 -1.347657,-2.703125 -1.347657,-5.40625 0,-1.351563 1.347657,-2.703125 1.347657,-4.054688 1.34375,-1.351562 1.34375,-2.703125 2.691406,-4.054687 1.347656,0 2.695312,-1.351563 5.386718,-1.351563 1.347657,0 2.695313,-1.351562 5.386719,-1.351562 6.734375,0 13.46875,2.703125 18.855469,5.40625 V 12.164062 C 67.332031,10.8125 61.945312,9.460938 55.214844,9.460938 Z M 45.785156,100 C 20.199219,98.648438 0,77.027344 0,50 0,24.324219 20.199219,2.703125 45.785156,0 v 10.8125 c -1.34375,0 -1.34375,0 -2.691406,0 -2.695312,1.351562 -5.386719,2.699219 -8.082031,4.050781 -2.691407,1.351563 -5.386719,4.054688 -6.730469,6.757813 -1.347656,2.703125 -2.695312,5.40625 -2.695312,9.460937 0,2.703125 1.347656,5.40625 1.347656,6.753907 1.347656,2.703124 2.691406,4.054687 4.039062,6.757812 1.347656,1.351562 4.039063,2.703125 6.734375,4.054688 1.347657,1.351562 5.386719,2.703124 8.078125,4.054687 2.695313,1.351563 4.042969,1.351563 6.734375,2.703125 1.347657,1.351562 4.039063,1.351562 5.386719,2.703125 1.347656,1.351563 2.695312,2.703125 4.039062,4.054687 0,1.347657 1.347657,2.699219 1.347657,4.050782 0,8.109375 -5.386719,10.8125 -16.160157,10.8125 -8.078124,0 -14.8125,-2.703125 -21.546874,-6.757813 v 12.164063 c 5.386718,4.054687 12.121093,5.402344 20.199218,5.402344 z m 0,0"
       id="path6901" />
  </g>
</svg>

<?xml version="1.0" encoding="UTF-8"?>
<svg xmlns="http://www.w3.org/2000/svg" xmlns:xlink="http://www.w3.org/1999/xlink" width="134px" height="100px" viewBox="0 0 101 100" version="1.1">
<g id="surface1">
<path style=" stroke:none;fill-rule:nonzero;fill:rgb(20.392157%,23.921569%,32.549021%);fill-opacity:1;" d="M 55.214844 0 C 80.800781 2.703125 101 24.324219 101 50 C 101 77.027344 80.800781 98.648438 55.214844 100 L 55.214844 86.488281 C 55.214844 86.488281 56.558594 86.488281 56.558594 86.488281 C 60.601562 85.136719 63.292969 83.785156 65.988281 82.433594 C 68.679688 79.730469 71.375 78.378906 72.71875 75.675781 C 74.066406 72.972656 75.414062 68.917969 75.414062 66.214844 C 75.414062 62.164062 74.066406 60.8125 74.066406 58.109375 C 72.71875 55.40625 71.375 54.054688 68.679688 52.703125 C 67.332031 50 64.640625 48.648438 61.945312 47.296875 C 60.601562 45.945312 56.558594 44.59375 53.867188 43.242188 C 51.171875 43.242188 48.480469 41.890625 47.132812 40.539062 C 45.785156 40.539062 43.09375 39.1875 41.746094 37.835938 C 40.398438 37.835938 40.398438 36.488281 39.054688 35.136719 C 39.054688 33.785156 37.707031 32.433594 37.707031 29.730469 C 37.707031 28.378906 39.054688 27.027344 39.054688 25.675781 C 40.398438 24.324219 40.398438 22.972656 41.746094 21.621094 C 43.09375 21.621094 44.441406 20.269531 47.132812 20.269531 C 48.480469 20.269531 49.828125 18.917969 52.519531 18.917969 C 59.253906 18.917969 65.988281 21.621094 71.375 24.324219 L 71.375 12.164062 C 67.332031 10.8125 61.945312 9.460938 55.214844 9.460938 Z M 45.785156 100 C 20.199219 98.648438 0 77.027344 0 50 C 0 24.324219 20.199219 2.703125 45.785156 0 L 45.785156 10.8125 C 44.441406 10.8125 44.441406 10.8125 43.09375 10.8125 C 40.398438 12.164062 37.707031 13.511719 35.011719 14.863281 C 32.320312 16.214844 29.625 18.917969 28.28125 21.621094 C 26.933594 24.324219 25.585938 27.027344 25.585938 31.082031 C 25.585938 33.785156 26.933594 36.488281 26.933594 37.835938 C 28.28125 40.539062 29.625 41.890625 30.972656 44.59375 C 32.320312 45.945312 35.011719 47.296875 37.707031 48.648438 C 39.054688 50 43.09375 51.351562 45.785156 52.703125 C 48.480469 54.054688 49.828125 54.054688 52.519531 55.40625 C 53.867188 56.757812 56.558594 56.757812 57.90625 58.109375 C 59.253906 59.460938 60.601562 60.8125 61.945312 62.164062 C 61.945312 63.511719 63.292969 64.863281 63.292969 66.214844 C 63.292969 74.324219 57.90625 77.027344 47.132812 77.027344 C 39.054688 77.027344 32.320312 74.324219 25.585938 70.269531 L 25.585938 82.433594 C 30.972656 86.488281 37.707031 87.835938 45.785156 87.835938 Z M 45.785156 100 "/>
</g>
</svg>
